X: 878
T: Gönül ki Aşk ile
C: Dellalzâde İsmail Efendi
O: Turkey
F: http://compmusic.upf.edu/node/140
N: yegah--beste--zencir--gonul_ki--dellalzade_haci_ismail_efendi
N: makam= yegah
N: form= beste
N: usul= zencir = 120/4
M: 120/4
L: 1/16
K: C _2/4B ^f  
Q: 1/4=66
%%MIDI tuningsystem comma53
A4 d4 z2 cd c2 B2  | A3/2c/ BA G4 z2 g2 =f2 e2  | \
w:  Yâr  gö nül   |  *  *  *  *  *  nül  *  ki   | 
e2 {=f}ed ^3/4c2 d2 c4 d4  | 
w:  a   | 
z2 cd c2 de d2 e2 e3/2g/ =fe  | e4 z4 ^3/4f3e f2 g2  | \
w:  a   |  *  aşk  *  i le   | 
g^3/4f fe f2 g2 f3/2a/ gf e4  | 
w:  pür   | 
z2 de d2 e2 e2 =fg fe d2  | d2 z2 d2 cB cd cB c2 d2  | 
w:  pür   |  *  sî  | 
^3/4c4 d8 z4  | z2 d4 a2 g3f ^3/4e2 f2  | \
w:   |  ne *  de   | 
^3/4e2 g2 f4 z2 d=e d2 e2  | d2 e4 e2 e3/2g/ =fe d4  | 
w:  *  *  *  ah  *  *  ha  |  zî   | 
z2 d4 e2 d3c B2 d2  | c3B B2 g2 ^3/4f3e d4  | \
w:  zî  |  *  *  ne  *  *  *  bu  | 
e2 d2 ^3/4c=f ed d4 z4  | 
w:  lur    | 
d4 ag g^3/4f f4 z4  | a3g ^3/4f3e .d4 a2 g2  | \
w:  Ah  ye  *  le  *  lel   |  lel  *  *  *  *  lel   | 
^3/4f2 e2 f2 g2 a2 f4 d2  | 
w:  *  *  le  *  *  le   | 
e2 ^3/4f2 d4 z4 ^3/4c2 d2  | e2 ^3/4f2 d2 g2 gf fe f2 g2  | \
w:  lel  *  li  te  re   |  lel  *  *  *  lel   | 
^3/4f2 z2 d2 =f2 e4 ^3/4c2 e2  | 
w:  *  le  le  lel  le   | 
d4 c2 B2 cd cB c2 d2  | e2 d2 c2 B2 c3B A4  | \
w:  lel  le  *  lel  *  *  *  li   |  vay    | 
z2 c4 B2 c3B A4  | 
w:  Sî ne de   | 
A4 G2 A2 B2 c2 B2 A2  | A3G G3^3/4F AG F^3/4E F4  | \
w:  *  *  *  *  ah  *  ha  |  zî   | 
z2 ^3/4F4 G2 F3E D2 G2  | 
w:  zî  | 
^3/4F2 z2 D2 F2 E4 ^3/4C2 E2  | D4 ^3/4C^3/4F ED D4 z4  | \
w:  *  ne  *  *  bu  |  lur   | 
A4 d4 d6 z2  | A4 d4 z2 cd c2 B2  | 
w:  hey  câ nım    |  Yâr  gö nül   | 
A3/2c/ BA G4 z2 g2 =f2 e2  | e2 {=f}ed ^3/4c2 d2 c4 d4  | \
w:  *  *  *  *  *  nül  *  ki   |  a   | 
z2 cd c2 de d2 e2 e3/2g/ =fe  | 
w:  a   | 
e4 z4 ^3/4f3e f2 g2  | g^3/4f fe f2 g2 f3/2a/ gf e4  | \
w:  *  aşk  *  i le   |  pür   | 
z2 de d2 e2 e2 =fg fe d2  | 
w:  pür   | 
d2 z2 d2 cB cd cB c2 d2  | ^3/4c4 d8 z4  | \
w:  *  sî  |   | 
z2 d4 a2 g3f ^3/4e2 f2  | 
w:  ne *  de   | 
^3/4e2 g2 f4 z2 d=e d2 e2  | d2 e4 e2 e3/2g/ =fe d4  | \
w:  *  *  *  ah  *  *  ha  |  zî   | 
z2 d4 e2 d3c B2 d2  | 
w:  zî  | 
c3B B2 g2 ^3/4f3e d4  | e2 d2 ^3/4c=f ed d4 z4  | \
w:  *  *  ne  *  *  *  bu  |  lur    | 
d4 ag g^3/4f f4 z4  | 
w:  Ah  ye  *  le  *  lel   | 
a3g ^3/4f3e .d4 a2 g2  | ^3/4f2 e2 f2 g2 a2 f4 d2  | \
w:  lel  *  *  *  *  lel   |  *  *  le  *  *  le   | 
e2 ^3/4f2 d4 z4 ^3/4c2 d2  | e2 ^3/4f2 d2 g2 gf fe f2 g2  | 
w:  lel  *  li  te  re   |  lel  *  *  *  lel   | 
^3/4f2 z2 d2 =f2 e4 ^3/4c2 e2  | d4 c2 B2 cd cB c2 d2  | \
w:  *  le  le  lel  le   |  lel  le  *  lel  *  *  *  li   | 
e2 d2 c2 B2 c3B A4  | 
w:  vay    | 
z2 c4 B2 c3B A4  | A4 G2 A2 B2 c2 B2 A2  | \
w:  Sî ne de   |  *  *  *  *  ah  *  ha  | 
A3G G3^3/4F AG F^3/4E F4  | 
w:  zî   | 
z2 ^3/4F4 G2 F3E D2 G2  | ^3/4F2 z2 D2 F2 E4 ^3/4C2 E2  | \
w:  zî  |  *  ne  *  *  bu  | 
D4 ^3/4C^3/4F ED D4 z4  | 
w:  lur   | 
a3g ag f^e f6 z2  | d4 f4 z2 {a}g2 f2 ^e2  | \
w:  hey  *  câ *  *  *  nım    |  Yâr  ne  *  be   | 
d2 ^ef ed ^3/4c2 z2 d4 ^3/4e2  | 
w:  *  *  *  *  *  *  ben  Na  | 
^3/4f6 e2 g3f e4  | z2 e4 ^3/4f2 g3f a3e  | \
w:  zî   |  zîm   | 
e3d d2 {=f}ed .d4 d2 dc  | 
w:  *  *  *  *  *  *  *  o  şe  | 
e3d c3B d3c B3A  | z2 A4 c2 c3B B3A  | \
w:  hi   |  hi   | 
A2 G^3/4F B3A A3G AG GF  | 
w:  hü   | 
^3/4F12 z4  | A3G ^3/4F2 GA G2 A4 A2  | \
w:   |  hüs *  *  ne  *  ben   | 
A4 d4 ^3/4c2 =Bc B2 cd  | ^3/4c2 d4 dc ed dc d4  | 
w:  *  *  *  ben *  *  ze  |  rin   | 
d2 z2 ^3/4c2 d2 e2 ^3/4f2 d2 g2  | \
w:  *  rin   | 
^3/4f3e d2 f2 e4 ^3/4c2 e2  | d3=B A3G ^3/4F3E D4  | 
w:  *  *  bu *  *  lu   |  lur    | 
A4 d4 z2 cd c2 B2  | A3/2c/ BA G4 z2 g2 =f2 e2  | \
w:  Yâr  be ni   |  *  *  *  *  *  nim  *  gi  | 
e2 {=f}ed ^3/4c2 d2 c4 d4  | 
w:  bi   | 
z2 cd c2 de d2 e2 e3/2g/ =fe  | e4 z4 ^3/4f3e f2 g2  | \
w:  bi   |  *  bi  *  ne  o   | 
g^3/4f fe f2 g2 f3/2a/ gf e4  | 
w:  şe   | 
z2 de d2 e2 e2 =fg fe d2  | d2 z2 d2 cB cd cB c2 d2  | 
w:  şeh   |  *  be   | 
^3/4c4 d8 z4  | z2 d4 a2 g3f ^3/4e2 f2  | \
w:   |  ben *  de   | 
^3/4e2 g2 f4 z2 d=e d2 e2  | d2 e4 e2 e3/2g/ =fe d4  | 
w:  *  *  *  ah  *  *  ke  |  mî   | 
z2 d4 e2 d3c B2 d2  | c3B B2 g2 ^3/4f3e d4  | \
w:  mî  |  *  *  ne  *  *  *  bu  | 
e2 d2 ^3/4c=f ed d4 z4  | 
w:  lur    | 
d4 ag g^3/4f f4 z4  | a3g ^3/4f3e .d4 a2 g2  | \
w:  Ah  ye  *  le  *  lel   |  lel  *  *  *  *  lel   | 
^3/4f2 e2 f2 g2 a2 f4 d2  | 
w:  *  *  le  *  *  le   | 
e2 ^3/4f2 d4 z4 ^3/4c2 d2  | e2 ^3/4f2 d2 g2 gf fe f2 g2  | \
w:  lel  *  li  te  re   |  lel  *  *  *  lel   | 
^3/4f2 z2 d2 =f2 e4 ^3/4c2 e2  | 
w:  *  le  le  lel  le   | 
d4 c2 B2 cd cB c2 d2  | e2 d2 c2 B2 c3B A4  | \
w:  lel  le  *  lel  *  *  *  li   |  vay    | 
z2 c4 B2 c3B A4  | 
w:  Sî ne de   | 
A4 G2 A2 B2 c2 B2 A2  | A3G G3^3/4F AG F^3/4E F4  | \
w:  *  *  *  *  ah  *  ha  |  zî   | 
z2 ^3/4F4 G2 F3E D2 G2  | 
w:  zî  | 
^3/4F2 z2 D2 F2 E4 ^3/4C2 E2  | D4 ^3/4C^3/4F ED D4 z4  | |


